app/dist/common/images/sigmatron-international.svg

<svg height="18" viewBox="0 0 18 18" width="18" xmlns="http://www.w3.org/2000/svg"><path d="m0 0h18v18h-18z" fill="#034273"/><path d="m7.54 6-1.68 1.5h3.57l.35-1.5zm-4.3 4.5-.24 1.5h5.25c.31 0 .57-.29.62-.68l.37-2.85c.03-.25-.12-.47-.31-.47h-3.71l-1.59 1.5h3.7c.19 0 .33.3.3.53-.02.19-.15.47-.3.47h-4.08zm7.4 1.5.15-.93.66-3.57h-1.67l1.67-1.5h3.55l-.28 1.5h-1.76l-.8 4.5h-1.53z" fill="#fff"/></svg>

<!-- by TradingView --><svg xmlns="http://www.w3.org/2000/svg" width="18" height="18" viewBox="0 0 18 18"><path fill="#034273" d="M0 0h18v18H0z"/><path d="M7.54 6L5.86 7.5h3.57L9.78 6H7.54zm-4.3 4.5L3 12h5.25c.31 0 .57-.29.62-.68l.37-2.85c.03-.25-.12-.47-.31-.47H5.22L3.63 9.5h3.7c.19 0 .33.3.3.53-.02.19-.15.47-.3.47H3.25zm7.4 1.5l.15-.93.66-3.57H9.78L11.45 6H15l-.28 1.5h-1.76l-.8 4.5h-1.53z" fill="#fff"/></svg>
